X:14
T:Take a Dance
M:6/8
L:1/8
B:Thompson's Compleat Collection of 200 Favourite Country Dances, vol. 2 (London, 1765)
Z:Transcribed and edited by Flynn Titford-Mock, 2007
Z:abc's:AK/Fiddler's Companion
K:D
B2c d2e | fed "tr"c3 | B2c d2e | f2g fdB | B2c d2e | fed "tr"c3 | A2B c2d | e2a ecA :|
|: (a2f) (g2e) | (f2d) "tr"c3 | B2c d2e | f2g fdB | aaf gge | ffd c3 | A2B c2d | e2a (ec)A :|

